X:1
T: Old Quarry
R: reel
C: Rick Gagne
N: 1992 on whistle
Q: 1/4=175
M: 4/4
K: Edor
BG |"C"E2EG "Bm"F2FG|"Am"EFGE "D"FDAF|"G"GBdB "Em"eBge|"D"fedf "Em"eBGB|
"C"E2EG "Bm"F2FG|"Am"EFGE "D"FDAF |"G"GBdB "Em"eBge|"D"fedf "Em"e2 :|
ef |"C"gfge "Bm"fdgf |"Em"eBGB "D"F2GF |"Am"E2EG "D"F2FA |"Em"GABG "Bm"ABdB|
"D"defg "Bm"afdB|"C"bgaf "Bm"gedB|"C"gfge "D"fdgf|"Em"eBGB E2 :|
